assets/icon.svg

<svg id="Layer_1" data-name="Layer 1" xmlns="http://www.w3.org/2000/svg" viewBox="0 0 18 15.39"><title>icon</title><path d="M10.59,7.66a.89.89,0,0,1,1,.16,6.9,6.9,0,0,1,1.35,3.8,8.47,8.47,0,0,1-.87,4.06c-.43.6-.86.6-1.19.38S5.5,12,5.23,11.89s-.38.16-.11,1.61-.17,1.91-.55,2S3.06,15.2,3,12.16s.76-3.52,1.14-3.52c.71,0,6.13,4.86,6.5,4.82s.49-2.11-.14-3.74.09-2.06.09-2.06m8.71-3A16.28,16.28,0,0,1,21,12a16.28,16.28,0,0,1-1.7,7.37,1,1,0,0,1-1.18.22c-.7-.33-.46-1.19-.46-1.19a14.92,14.92,0,0,0,1.44-6.35V12a15.28,15.28,0,0,0-1.44-6.4s-.24-.86.46-1.19a1,1,0,0,1,1.18.22M15.77,6.25A11.44,11.44,0,0,1,17.14,12a12.14,12.14,0,0,1-1.37,5.85,1,1,0,0,1-1.18.22c-.7-.33-.46-1.19-.46-1.19s1-1.38,1.11-4.83V12c-.1-3.47-1.11-4.77-1.11-4.77s-.24-.87.46-1.19A1,1,0,0,1,15.77,6.25Z" transform="translate(-3 -4.3)"/></svg>

<?xml version="1.0" encoding="UTF-8"?><!DOCTYPE svg PUBLIC "-//W3C//DTD SVG 1.1//EN" "http://www.w3.org/Graphics/SVG/1.1/DTD/svg11.dtd"><svg xmlns="http://www.w3.org/2000/svg" xmlns:xlink="http://www.w3.org/1999/xlink" version="1.1" width="24" height="24" viewBox="0 0 24 24"><path d="M10.59,7.66C10.59,7.66 11.19,7.39 11.57,7.82C11.95,8.26 12.92,9.94 12.92,11.62C12.92,13.3 12.5,15.09 12.05,15.68C11.62,16.28 11.19,16.28 10.86,16.06C10.54,15.85 5.5,12 5.23,11.89C4.95,11.78 4.85,12.05 5.12,13.5C5.39,15 4.95,15.41 4.57,15.47C4.2,15.5 3.06,15.2 3,12.16C2.95,9.13 3.76,8.64 4.14,8.64C4.85,8.64 10.27,13.5 10.64,13.46C10.97,13.41 11.13,11.35 10.5,9.72C9.78,7.96 10.59,7.66 10.59,7.66M19.3,4.63C21.12,8.24 21,11.66 21,12C21,12.34 21.12,15.76 19.3,19.37C19.3,19.37 18.83,19.92 18.12,19.59C17.42,19.26 17.66,18.4 17.66,18.4C17.66,18.4 19.14,15.55 19.1,12.05V12C19.14,8.5 17.66,5.6 17.66,5.6C17.66,5.6 17.42,4.74 18.12,4.41C18.83,4.08 19.3,4.63 19.3,4.63M15.77,6.25C17.26,8.96 17.16,11.66 17.14,12C17.16,12.34 17.26,14.92 15.77,17.85C15.77,17.85 15.3,18.4 14.59,18.07C13.89,17.74 14.13,16.88 14.13,16.88C14.13,16.88 15.09,15.5 15.24,12.05V12C15.14,8.53 14.13,7.23 14.13,7.23C14.13,7.23 13.89,6.36 14.59,6.04C15.3,5.71 15.77,6.25 15.77,6.25Z" /></svg>
